src/settings.svg

<svg viewBox="0 0 16 16" fill="none" xmlns="http://www.w3.org/2000/svg"><path fill-rule="evenodd" clip-rule="evenodd" d="M14.19 6.47L13.32 7.09C13.4399 7.69074 13.4399 8.30926 13.32 8.91L14.19 9.54L14.96 10.08L14.46 10.88L13.4 12.58L12.9 13.38L12.07 12.92L11.13 12.41C10.7937 12.6415 10.4353 12.8391 10.06 13L10 14.06L9.94 15H6.06L6 14.06L5.94 13C5.54994 12.8396 5.17788 12.6385 4.83 12.4L3.89 12.91L3.06 13.37L2.56 12.57L1.5 10.87L1 10.07L1.81 9.53L2.68 8.91C2.56012 8.30926 2.56012 7.69074 2.68 7.09L1.81 6.47L1.04 5.93L1.54 5.13L2.6 3.43L3.1 2.63L3.93 3.08L4.87 3.59C5.20634 3.35853 5.56475 3.1609 5.94 3L6 1.94L6.06 1H9.94L10 1.94L10.06 3C10.4385 3.15823 10.7976 3.35956 11.13 3.6L12.07 3.09L12.9 2.63L13.4 3.43L14.5 5.13L15 5.93L14.19 6.47ZM11 11.2L12.55 12L13.61 10.32L12.18 9.32C12.3266 8.8951 12.4043 8.44946 12.41 8C12.3985 7.55763 12.321 7.11945 12.18 6.7L13.61 5.7L12.55 4L11 4.75C10.4564 4.26857 9.8046 3.92552 9.1 3.75L9 2H7L6.92 3.8C6.20715 3.96942 5.54745 4.31302 5 4.8L3.45 4L2.39 5.68L3.82 6.68C3.66853 7.10364 3.59074 7.5501 3.59 8C3.59664 8.44285 3.67429 8.88176 3.82 9.3L2.39 10.3L3.45 12L5 11.2C5.5384 11.6995 6.19062 12.0599 6.9 12.25L7 14H9L9.1 12.25C9.80938 12.0599 10.4616 11.6995 11 11.2ZM6.42327 6.06989C6.86718 5.70338 7.42437 5.50199 8.00003 5.5C8.32855 5.49942 8.65397 5.56359 8.95768 5.68885C9.26139 5.8141 9.53743 5.99799 9.77003 6.23C10.1769 6.63722 10.4301 7.17285 10.4866 7.74573C10.5431 8.31862 10.3993 8.89337 10.0798 9.3722C9.7602 9.85102 9.28461 10.2043 8.73391 10.372C8.18321 10.5397 7.59142 10.5114 7.05924 10.2919C6.52707 10.0724 6.08738 9.67531 5.81499 9.16817C5.54261 8.66103 5.45436 8.07517 5.56526 7.51029C5.67617 6.94541 5.97936 6.43641 6.42327 6.06989ZM7.16667 9.24721C7.41334 9.41203 7.70335 9.5 8.00003 9.5C8.39785 9.5 8.77938 9.34197 9.06069 9.06066C9.34199 8.77936 9.50003 8.39783 9.50003 8C9.50003 7.70333 9.41205 7.41332 9.24723 7.16665C9.08241 6.91997 8.84814 6.72772 8.57405 6.61418C8.29996 6.50065 7.99836 6.47095 7.70739 6.52883C7.41642 6.5867 7.14914 6.72956 6.93937 6.93934C6.72959 7.14912 6.58673 7.4164 6.52885 7.70737C6.47097 7.99834 6.50068 8.29994 6.61421 8.57403C6.72774 8.84812 6.92 9.08239 7.16667 9.24721Z" fill="#111111"/></svg>

<svg viewBox="0 0 16 16" fill="none" xmlns="http://www.w3.org/2000/svg"><path fill-rule="evenodd" clip-rule="evenodd" d="m14.19 6.47-.87.62c.12.6.12 1.22 0 1.82l.87.63.77.54-.5.8-1.06 1.7-.5.8-.83-.46-.94-.51c-.336.232-.695.43-1.07.59L10 14.06l-.06.94H6.06L6 14.06 5.94 13a5.996 5.996 0 0 1-1.11-.6l-.94.51-.83.46-.5-.8-1.06-1.7-.5-.8.81-.54.87-.62a4.65 4.65 0 0 1 0-1.82l-.87-.62-.77-.54.5-.8 1.06-1.7.5-.8.83.45.94.51A6.19 6.19 0 0 1 5.94 3L6 1.94 6.06 1h3.88l.06.94.06 1.06c.378.158.738.36 1.07.6l.94-.51.83-.46.5.8 1.1 1.7.5.8-.81.54ZM11 11.2l1.55.8 1.06-1.68-1.43-1A4.21 4.21 0 0 0 12.41 8a4.442 4.442 0 0 0-.23-1.3l1.43-1L12.55 4 11 4.75a4.51 4.51 0 0 0-1.9-1L9 2H7l-.08 1.8A4.43 4.43 0 0 0 5 4.8L3.45 4 2.39 5.68l1.43 1A3.94 3.94 0 0 0 3.59 8c.007.443.084.882.23 1.3l-1.43 1L3.45 12 5 11.2c.538.5 1.19.86 1.9 1.05L7 14h2l.1-1.75A4.51 4.51 0 0 0 11 11.2ZM6.423 6.07a2.49 2.49 0 1 1 3.171 3.84 2.49 2.49 0 0 1-3.17-3.84Zm.744 3.177a1.5 1.5 0 1 0 1.666-2.494 1.5 1.5 0 0 0-1.666 2.494Z" fill="#111111"/></svg>
